editor/icons/icon_GUI_visibility_visible.svg

<?xml version="1.0" encoding="UTF-8" standalone="no"?>
<svg
   xmlns:dc="http://purl.org/dc/elements/1.1/"
   xmlns:cc="http://creativecommons.org/ns#"
   xmlns:rdf="http://www.w3.org/1999/02/22-rdf-syntax-ns#"
   xmlns:svg="http://www.w3.org/2000/svg"
   xmlns="http://www.w3.org/2000/svg"
   xmlns:sodipodi="http://sodipodi.sourceforge.net/DTD/sodipodi-0.dtd"
   xmlns:inkscape="http://www.inkscape.org/namespaces/inkscape"
   width="16"
   height="16"
   version="1.1"
   viewBox="0 0 16 16"
   id="svg2"
   inkscape:version="0.91 r13725"
   sodipodi:docname="icon_visibility_visible.svg">
  <metadata
     id="metadata12">
    <rdf:RDF>
      <cc:Work
         rdf:about="">
        <dc:format>image/svg+xml</dc:format>
        <dc:type
           rdf:resource="http://purl.org/dc/dcmitype/StillImage" />
        <dc:title></dc:title>
      </cc:Work>
    </rdf:RDF>
  </metadata>
  <defs
     id="defs10" />
  <sodipodi:namedview
     pagecolor="#ffffff"
     bordercolor="#666666"
     borderopacity="1"
     objecttolerance="10"
     gridtolerance="10"
     guidetolerance="10"
     inkscape:pageopacity="0"
     inkscape:pageshadow="2"
     inkscape:window-width="1920"
     inkscape:window-height="1027"
     id="namedview8"
     showgrid="false"
     inkscape:zoom="14.75"
     inkscape:cx="15.823281"
     inkscape:cy="12.108563"
     inkscape:window-x="-8"
     inkscape:window-y="-8"
     inkscape:window-maximized="1"
     inkscape:current-layer="svg2" />
  <g
     transform="translate(0 -1036.4)"
     id="g4"
     style="fill:#e0e0e0;fill-opacity:1">
    <path
       transform="translate(0,1036.4)"
       d="M 8,2 C 5.4433,2 2.2093,3.9477 1.0449,7.7051 c -0.0572671,0.1855049 -0.059303,0.3836676 -0.00586,0.57031 1.1244,3.9354 4.4609,5.7246 6.9609,5.7246 2.5000004,0 5.8365004,-1.7892 6.9609004,-5.7246 0.05192,-0.180585 0.05192,-0.372145 0,-0.55273 -1.1003,-3.7876 -4.4066,-5.7227 -6.9609004,-5.7227 z m 0,2 c 2.209139,0 4,1.790861 4,4 0,2.209139 -1.790861,4 -4,4 C 5.790861,12 4,10.209139 4,8 4,5.790861 5.790861,4 8,4 Z M 8,6 C 6.8954305,6 6,6.8954305 6,8 6,9.1045695 6.8954305,10 8,10 9.1045695,10 10,9.1045695 10,8 10,6.8954305 9.1045695,6 8,6 Z"
       style="color:#000000;text-indent:0;text-decoration:none;text-decoration-line:none;text-decoration-style:solid;text-decoration-color:#000000;text-transform:none;white-space:normal;isolation:auto;mix-blend-mode:normal;solid-color:#000000;fill:#e0e0e0;fill-opacity:1;fill-rule:evenodd;color-rendering:auto;image-rendering:auto;shape-rendering:auto"
       id="path6"
       inkscape:connector-curvature="0"
       sodipodi:nodetypes="cccsccccssssssssss" />
  </g>
</svg>

<svg width="16" height="16" version="1.1" viewBox="0 0 16 16" xmlns="http://www.w3.org/2000/svg">
<path d="m8 2c-2.5567 0-5.7907 1.9477-6.9551 5.7051a1.0001 1.0001 0 0 0 -0.00586 0.57031c1.1244 3.9354 4.4609 5.7246 6.9609 5.7246s5.8365-1.7892 6.9609-5.7246a1.0001 1.0001 0 0 0 0 -0.55273c-1.1003-3.7876-4.4066-5.7227-6.9609-5.7227zm0 2a4 4 0 0 1 4 4 4 4 0 0 1 -4 4 4 4 0 0 1 -4 -4 4 4 0 0 1 4 -4zm0 2a2 2 0 0 0 -2 2 2 2 0 0 0 2 2 2 2 0 0 0 2 -2 2 2 0 0 0 -2 -2z" color="#000000" color-rendering="auto" fill="#e0e0e0" fill-opacity=".99608" fill-rule="evenodd" image-rendering="auto" shape-rendering="auto" solid-color="#000000" style="isolation:auto;mix-blend-mode:normal;text-decoration-color:#000000;text-decoration-line:none;text-decoration-style:solid;text-indent:0;text-transform:none;white-space:normal"/>
</svg>
